X:0628
T:The Miners of Wicklow,
C:Irish.
M:6/8
L:1/8
Q:3/8=120
I: :: ::
Z:Jack Campin * www.campin.me.uk * 2009
K:D
A/G/|FGA AB=c|BGB AFA|BGE    EFG   |AFD DAG|
     FGA AB=c|BGB AFA|B/c/dB c/d/ec|d3  D2:|
a/g/|fdf fdf |ece ece|fdf    fdf   |geg geg|
     fdf fdf |ece ecA|B/c/dB c/d/ec|d3  D2:|
<end>
<start>
